icon-themes/elementary_svg/res/sx18013.svg

<svg height="16" width="16" xmlns="http://www.w3.org/2000/svg" xmlns:xlink="http://www.w3.org/1999/xlink"><linearGradient id="a" gradientTransform="matrix(.50256996 0 0 .39304699 69.012625 -24.035598)" gradientUnits="userSpaceOnUse" x1="8.474576" x2="8.338983" y1="5.771186" y2="14.855932"><stop offset="0" stop-color="#efdfc4"/><stop offset="1" stop-color="#e7c591"/></linearGradient><linearGradient id="b" gradientTransform="matrix(.89189031 0 0 .94046961 3.14398 5.346537)" gradientUnits="userSpaceOnUse" x1="11.350123" x2="11.350123" y1=".666966" y2="8.172179"><stop offset="0" stop-color="#fff"/><stop offset=".0097359" stop-color="#fff" stop-opacity=".235294"/><stop offset=".99001008" stop-color="#fff" stop-opacity=".156863"/><stop offset="1" stop-color="#fff" stop-opacity=".392157"/></linearGradient><linearGradient id="c" gradientTransform="matrix(.33333327 0 0 .32971018 -17.44063 -.647843)" gradientUnits="userSpaceOnUse" x1="62.988873" x2="62.988873" y1="11.645091" y2="15.385052"><stop offset="0" stop-color="#fff"/><stop offset="1" stop-color="#d8d8d8"/></linearGradient><linearGradient id="d" gradientUnits="userSpaceOnUse" x1="11.000119" x2="10.843659" y1="-1.000464" y2="-15.125461"><stop offset="0" stop-color="#fafafa"/><stop offset="1" stop-color="#d4d4d4"/></linearGradient><linearGradient id="e" gradientUnits="userSpaceOnUse" x1="12.00104" x2="12.00104" y1="-4.018996" y2="12.000077"><stop offset="0" stop-color="#fff"/><stop offset="0" stop-color="#fff" stop-opacity=".235"/><stop offset="1" stop-color="#fff" stop-opacity=".157"/><stop offset="1" stop-color="#fff" stop-opacity=".392"/></linearGradient><linearGradient id="f" gradientTransform="matrix(1.054 0 0 1.22 -.878 -4.413)" gradientUnits="userSpaceOnUse" x1="16.961" x2="16.961" y1="17.549999" y2="22.468"><stop offset="0" stop-color="#fafafa"/><stop offset="1" stop-color="#e1e1e1"/></linearGradient><linearGradient id="g" gradientUnits="userSpaceOnUse" x1="19.294001" x2="17.955999" y1="17.535" y2="22.587"><stop offset="0" stop-color="#fff"/><stop offset=".508" stop-color="#fff" stop-opacity=".235"/><stop offset=".835" stop-color="#fff" stop-opacity=".157"/><stop offset="1" stop-color="#fff" stop-opacity=".392"/></linearGradient><g transform="translate(0 -1)"><path d="m15.5 3.9996665v-1.273333c0-.1385-.08818-.2263335-.22668-.2263335h-6.77332v-.742083c0-.1385-.08818-.257917-.22668-.257917h-6.5c-.1385 0-.27332.119417-.27332.257917v.742083h-.727c-.1385 0-.273.088167-.273.226667v1.273333" fill="none" opacity=".5" stroke="#7e8087" stroke-linecap="square"/><path d="m2 2v1h-1v4h14v-4h-7v-1z" fill="url(#c)"/><path d="m.5 4.5h15v10h-15z" fill="url(#a)" stroke="#987124" stroke-linejoin="round" stroke-opacity=".498039"/><path d="m1.5 5.5h13v8h-13z" fill="none" opacity=".5" stroke="url(#b)" stroke-linecap="round"/></g><g transform="translate(0 4)"><rect fill="url(#d)" height="8.849454" rx=".5" transform="scale(1 -1)" width="12.911434" x="2.040627" y="-10.904121"/><rect fill="none" height="9.988093" opacity=".344" rx="1" stroke="#555761" stroke-linecap="round" stroke-linejoin="round" width="13.97505" x="1.518949" y="1.517949"/><path d="m1.493 1.5h13.005l-.0339 8.932203h-13.0049983z" fill="none" stroke="url(#e)" stroke-linecap="round" stroke-linejoin="round"/><g transform="matrix(.9984 0 0 1.1897 -10.967 -15.284)"><rect fill="url(#f)" height="4.771156" rx="1.065" ry="1.049" width="9.798181" x="14.711413" y="16.077696"/><g fill="none" stroke-width=".918"><path d="m15.519348 16.386152h8.067659v3.660421h-8.067659z" stroke="url(#g)" stroke-linecap="round" stroke-linejoin="round"/><rect height="5.120824" opacity=".5" rx="1.063" ry=".846" stroke="#656565" width="10.008485" x="14.526366" y="15.686633"/></g></g><g fill="#4d4d4d"><path d="m5 6h1v1h-1z"/><path d="m6 5h1v1h-1z"/><path d="m7 6h1v1h-1z"/><path d="m5 7h1v1h-1z"/><path d="m7 7h1v1h-1z"/><path d="m6 8h1v1h-1z"/><path d="m9 5h1v1h-1z"/><path d="m9 6h1v1h-1z"/><path d="m9 7h1v1h-1z"/><path d="m9 8h1v1h-1z"/><path d="m11 5h1v1h-1z"/><path d="m10 6h1v1h-1z"/><path d="m11 7h1v1h-1z"/><path d="m11 8h1v1h-1z"/></g></g></svg>

<?xml version="1.0" encoding="UTF-8" standalone="no"?>
<svg
   xmlns:dc="http://purl.org/dc/elements/1.1/"
   xmlns:cc="http://creativecommons.org/ns#"
   xmlns:rdf="http://www.w3.org/1999/02/22-rdf-syntax-ns#"
   xmlns:svg="http://www.w3.org/2000/svg"
   xmlns="http://www.w3.org/2000/svg"
   xmlns:xlink="http://www.w3.org/1999/xlink"
   xmlns:sodipodi="http://sodipodi.sourceforge.net/DTD/sodipodi-0.dtd"
   xmlns:inkscape="http://www.inkscape.org/namespaces/inkscape"
   height="16"
   width="16"
   version="1.1"
   id="svg107"
   sodipodi:docname="sx18013.svg"
   inkscape:version="0.92.3 (unknown)">
  <metadata
     id="metadata113">
    <rdf:RDF>
      <cc:Work
         rdf:about="">
        <dc:format>image/svg+xml</dc:format>
        <dc:type
           rdf:resource="http://purl.org/dc/dcmitype/StillImage" />
      </cc:Work>
    </rdf:RDF>
  </metadata>
  <defs
     id="defs111">
    <linearGradient
       id="a-3"
       gradientTransform="matrix(0.50256996,0,0,0.39304699,69.012625,-24.035598)"
       gradientUnits="userSpaceOnUse"
       x1="-162.6788"
       x2="-162.6788"
       y1="58.56691"
       y2="80.030975">
      <stop
         offset="0"
         stop-color="#efdfc4"
         id="stop920" />
      <stop
         offset="1"
         stop-color="#e7c591"
         id="stop922" />
    </linearGradient>
    <linearGradient
       inkscape:collect="always"
       xlink:href="#a-3"
       id="linearGradient1528"
       x1="8.474576"
       y1="5.7711864"
       x2="8.3389826"
       y2="14.855932"
       gradientUnits="userSpaceOnUse" />
  </defs>
  <sodipodi:namedview
     pagecolor="#ffffff"
     bordercolor="#666666"
     borderopacity="1"
     objecttolerance="10"
     gridtolerance="10"
     guidetolerance="10"
     inkscape:pageopacity="0"
     inkscape:pageshadow="2"
     inkscape:window-width="1366"
     inkscape:window-height="706"
     id="namedview109"
     showgrid="false"
     inkscape:zoom="14.75"
     inkscape:cx="-0.71186441"
     inkscape:cy="7.4576271"
     inkscape:window-x="0"
     inkscape:window-y="0"
     inkscape:window-maximized="1"
     inkscape:current-layer="svg107" />
  <linearGradient
     id="a"
     gradientTransform="matrix(.89189031 0 0 .94046961 3.14398 5.346537)"
     gradientUnits="userSpaceOnUse"
     x1="11.350123"
     x2="11.350123"
     y1=".666966"
     y2="8.172179">
    <stop
       offset="0"
       stop-color="#fff"
       id="stop2" />
    <stop
       offset=".0097359"
       stop-color="#fff"
       stop-opacity=".235294"
       id="stop4" />
    <stop
       offset=".99001008"
       stop-color="#fff"
       stop-opacity=".156863"
       id="stop6" />
    <stop
       offset="1"
       stop-color="#fff"
       stop-opacity=".392157"
       id="stop8" />
  </linearGradient>
  <linearGradient
     id="b"
     gradientTransform="matrix(.33333327 0 0 .32971018 -17.44063 -.647843)"
     gradientUnits="userSpaceOnUse"
     x1="62.988873"
     x2="62.988873"
     y1="11.645091"
     y2="15.385052">
    <stop
       offset="0"
       stop-color="#fff"
       id="stop11" />
    <stop
       offset="1"
       stop-color="#d8d8d8"
       id="stop13" />
  </linearGradient>
  <linearGradient
     id="c"
     gradientTransform="matrix(0.50413225,0,0,0.49333391,93.640247,-24.864023)"
     gradientUnits="userSpaceOnUse"
     x1="-162.6788"
     x2="-162.6788"
     y1="58.56691"
     y2="80.030975"
     xlink:href="#g">
    <stop
       offset="0"
       stop-color="#b4cee1"
       id="stop16" />
    <stop
       offset="1"
       stop-color="#5d9fcd"
       id="stop18" />
  </linearGradient>
  <linearGradient
     id="d"
     gradientUnits="userSpaceOnUse"
     x1="11.0001188"
     x2="10.843659"
     y1="-1.0004641"
     y2="-15.125461">
    <stop
       offset="0"
       stop-color="#fafafa"
       id="stop21" />
    <stop
       offset="1"
       stop-color="#d4d4d4"
       id="stop23" />
  </linearGradient>
  <linearGradient
     id="e"
     gradientUnits="userSpaceOnUse"
     x1="12.00104"
     x2="12.00104"
     y1="-4.01899646"
     y2="12.00007689946">
    <stop
       offset="0"
       stop-color="#fff"
       id="stop26" />
    <stop
       offset="0"
       stop-color="#fff"
       stop-opacity=".235"
       id="stop28" />
    <stop
       offset="1"
       stop-color="#fff"
       stop-opacity=".157"
       id="stop30" />
    <stop
       offset="1"
       stop-color="#fff"
       stop-opacity=".392"
       id="stop32" />
  </linearGradient>
  <linearGradient
     id="f"
     gradientTransform="matrix(1.054 0 0 1.22 -.878 -4.413)"
     gradientUnits="userSpaceOnUse"
     x1="16.961"
     x2="16.961"
     y1="17.549999"
     y2="22.468">
    <stop
       offset="0"
       stop-color="#fafafa"
       id="stop35" />
    <stop
       offset="1"
       stop-color="#e1e1e1"
       id="stop37" />
  </linearGradient>
  <linearGradient
     id="g"
     gradientUnits="userSpaceOnUse"
     x1="19.294001"
     x2="17.955999"
     y1="17.535"
     y2="22.587">
    <stop
       offset="0"
       stop-color="#fff"
       id="stop40" />
    <stop
       offset=".508"
       stop-color="#fff"
       stop-opacity=".235"
       id="stop42" />
    <stop
       offset=".835"
       stop-color="#fff"
       stop-opacity=".157"
       id="stop44" />
    <stop
       offset="1"
       stop-color="#fff"
       stop-opacity=".392"
       id="stop46" />
  </linearGradient>
  <g
     transform="translate(0,-1)"
     id="g57">
    <path
       d="M 15.5,3.9996665 V 2.7263335 C 15.5,2.5878335 15.41182,2.5 15.27332,2.5 H 8.5 V 1.757917 C 8.5,1.619417 8.41182,1.5 8.27332,1.5 h -6.5 C 1.63482,1.5 1.5,1.619417 1.5,1.757917 V 2.5 H 0.773 C 0.6345,2.5 0.5,2.588167 0.5,2.726667 V 4"
       id="path49"
       inkscape:connector-curvature="0"
       style="opacity:0.5;fill:none;stroke:#7e8087;stroke-linecap:square" />
    <path
       d="M 2,2 V 3 H 1 V 7 H 15 V 3 H 8 V 2 Z"
       id="path51"
       inkscape:connector-curvature="0"
       style="fill:url(#b)" />
    <path
       d="m 0.5,4.5 h 15 v 10 h -15 z"
       id="path53"
       inkscape:connector-curvature="0"
       style="fill:url(#linearGradient1528);fill-opacity:1;stroke:#987124;stroke-linejoin:round;stroke-opacity:0.49803922" />
    <path
       d="m 1.5,5.5 h 13 v 8 h -13 z"
       id="path55"
       inkscape:connector-curvature="0"
       style="opacity:0.5;fill:none;stroke:url(#a);stroke-linecap:round" />
  </g>
  <g
     transform="translate(0 4)"
     id="g105">
    <rect
       fill="url(#d)"
       height="8.849454"
       rx=".5"
       transform="scale(1 -1)"
       width="12.911434"
       x="2.040627"
       y="-10.904121"
       id="rect59" />
    <rect
       fill="none"
       height="9.988093"
       opacity=".344"
       rx="1"
       stroke="#555761"
       stroke-linecap="round"
       stroke-linejoin="round"
       width="13.97505"
       x="1.518949"
       y="1.517949"
       id="rect61" />
    <path
       d="m1.493 1.5h13.005l-.0339 8.932203h-13.0049983z"
       fill="none"
       stroke="url(#e)"
       stroke-linecap="round"
       stroke-linejoin="round"
       id="path63" />
    <g
       transform="matrix(.9984 0 0 1.1897 -10.967 -15.284)"
       id="g73">
      <rect
         fill="url(#f)"
         height="4.771156"
         rx="1.065"
         ry="1.049"
         width="9.798181"
         x="14.711413"
         y="16.077696"
         id="rect65" />
      <g
         fill="none"
         stroke-width=".918"
         id="g71">
        <path
           d="m15.519348 16.386152h8.067659v3.660421h-8.067659z"
           stroke="url(#g)"
           stroke-linecap="round"
           stroke-linejoin="round"
           id="path67" />
        <rect
           height="5.120824"
           opacity=".5"
           rx="1.063"
           ry=".846"
           stroke="#656565"
           width="10.008485"
           x="14.526366"
           y="15.686633"
           id="rect69" />
      </g>
    </g>
    <g
       fill="#4d4d4d"
       id="g103">
      <path
         d="m5 6h1v1h-1z"
         id="path75" />
      <path
         d="m6 5h1v1h-1z"
         id="path77" />
      <path
         d="m7 6h1v1h-1z"
         id="path79" />
      <path
         d="m5 7h1v1h-1z"
         id="path81" />
      <path
         d="m7 7h1v1h-1z"
         id="path83" />
      <path
         d="m6 8h1v1h-1z"
         id="path85" />
      <path
         d="m9 5h1v1h-1z"
         id="path87" />
      <path
         d="m9 6h1v1h-1z"
         id="path89" />
      <path
         d="m9 7h1v1h-1z"
         id="path91" />
      <path
         d="m9 8h1v1h-1z"
         id="path93" />
      <path
         d="m11 5h1v1h-1z"
         id="path95" />
      <path
         d="m10 6h1v1h-1z"
         id="path97" />
      <path
         d="m11 7h1v1h-1z"
         id="path99" />
      <path
         d="m11 8h1v1h-1z"
         id="path101" />
    </g>
  </g>
</svg>
